storage/app/icons/phosphoricons/regular/app-window.svg

<svg xmlns="http://www.w3.org/2000/svg" fill="currentColor" viewBox="0 0 256 256"><path d="M216 40H40a16 16 0 0 0-16 16v144a16 16 0 0 0 16 16h176a16 16 0 0 0 16-16V56a16 16 0 0 0-16-16m0 160H40V56h176zM80 84a12 12 0 1 1-12-12 12 12 0 0 1 12 12m40 0a12 12 0 1 1-12-12 12 12 0 0 1 12 12"/></svg>

<svg xmlns="http://www.w3.org/2000/svg" viewBox="0 0 256 256" fill="currentColor"><path d="M216,40H40A16,16,0,0,0,24,56V200a16,16,0,0,0,16,16H216a16,16,0,0,0,16-16V56A16,16,0,0,0,216,40Zm0,160H40V56H216V200ZM80,84A12,12,0,1,1,68,72,12,12,0,0,1,80,84Zm40,0a12,12,0,1,1-12-12A12,12,0,0,1,120,84Z"/></svg>
